**kern	**kern
*part1	*part1
*staff2	*staff1
*I"Piano	*
*clefF4	*clefG2
*k[]	*k[]
=1	=1
*^	*
2.ryy@	2.DDD 2.DD	2.f 2.a-X 2.cc 2.ff
2.A-X 2.c	2.FFF 2.FF	2.f 2.a-
=	=	=
2.G 2.B	2.GGG 2.GG	2.f 2.g
2.ryy@	2.FFF 2.FF	2.B 2.d 2.g 2.b
=	=	=
2.ryy@	2.DDD 2.DD	2.d 2.f 2.a-X 2.dd
2.A-X	2.FFF 2.FF	2.c 2.f 2.a-
=	=	=
2.G	2.GGG 2.GG	2.B 2.d 2.g
2.ryy@	2.FFF 2.FF	2.A-X 2.B 2.d 2.a-X
=	=	=
2.C 2.A-X	2.EEE-X 2.EE-X	2.c
2.D 2.A- 2.B	2.DDD 2.DD	2.d
=	=	=
2.E-X 2.A-X 2.c	2.CCC 2.CC	2.e-X
2.E-	2.ee-X> 2.aa-X> 2.ccc>	2.e-
=	=	=
2.F-X	2.dd-X> 2.gg> 2.bb-X>	2.f-X
2.F- 2.G 2.B-X	2.DDD-X 2.DD-X	2.f-
=	=	=
2.E-X 2.A-X 2.c	2.CCC 2.CC	2.e-X
2.E-	2.ee-X> 2.aa-X> 2.ccc>	2.e-
=	=	=
2.F-X	2.dd-X> 2.gg> 2.bb-X>	2.f-X
2.F- 2.G 2.B-X	2.DDD-X 2.DD-X	2.f-
*v	*v	*
=	=
*-	*-
!!!system-decoration: {(s1,s2)}
!!!RDF**kern: > = above
